Vexed/wwwroot/images/icons/it-icon.svg

<svg width="49" height="34" viewBox="0 0 49 34" fill="none" xmlns="http://www.w3.org/2000/svg">
	<g clip-path="url(#clip0_7_5715)">
		<path fill-rule="evenodd" clip-rule="evenodd" d="M40.9999 3.40002C41.4999 3.40002 41.8999 3.90002 41.8999 4.40002V24.5C41.8999 25 41.4999 25.4 40.9999 25.4H8.2999C7.7999 25.4 7.3999 25 7.3999 24.5V4.40002C7.3999 3.90002 7.7999 3.40002 8.2999 3.40002H40.9999ZM39.6999 5.50002H9.6999V23.3H39.6999V5.50002Z" fill="#343957"/>
		<path d="M42.2 26.1L45.6 29.3C46.3 30 45.9 31.3 45 31.3H4.29999C3.39999 31.3 2.99999 30 3.69999 29.3L7.09999 26.1C7.29999 25.9667 7.49999 25.9 7.69999 25.9H41.6C41.8 25.9 42 25.9667 42.2 26.1Z" fill="#343957"/>
		<path fill-rule="evenodd" clip-rule="evenodd" d="M9.6001 23.3V5.5H39.7001V23.3H9.6001ZM24.3001 16.1H17.8001V16.9H24.3001V16.1ZM31.7001 20.7H24.7001V21.4H31.7001V20.7ZM38.1001 19.6H24.7001V20.2H38.1001V19.6ZM38.1001 18.6H24.7001V19.2H38.1001V18.6ZM38.1001 17.5H24.7001V18.1H38.1001V17.5ZM31.2001 16.9V16H24.7001V16.9H31.2001ZM38.1001 16H31.6001V16.9H38.1001V16ZM10.9001 15.2H38.1001V6.9H10.9001V15.2ZM10.9001 16.7H17.4001V15.9H10.9001V16.7ZM10.9001 21.6H24.3001V17.5H10.9001V21.6Z" fill="#9C77A4"/>
		<path d="M10.8999 15.4V7H38.1999V15.4H10.8999Z" fill="#EBEEFF"/>
		<path d="M10.8999 16.9V16.1H17.3999V16.9H10.8999Z" fill="#76628B"/>
		<path d="M10.8999 21.7V17.6H24.2999V21.7H10.8999Z" fill="#76628B"/>
		<path d="M17.8 16.9V16.1H24.3V16.9H17.8Z" fill="#76628B"/>
		<path d="M24.7 16.9V16.1H31.2V16.9H24.7Z" fill="#76628B"/>
		<path d="M24.7 18.2V17.6H38.2V18.2H24.7Z" fill="#EBEEFF"/>
		<path d="M24.7 19.2V18.6H38.2V19.2H24.7Z" fill="#EBEEFF"/>
		<path d="M24.7 20.3V19.7H38.2V20.3H24.7Z" fill="#EBEEFF"/>
		<path d="M24.7 21.4V20.7H31.7V21.4H24.7Z" fill="#EBEEFF"/>
		<path d="M31.7 16.9V16.1H38.2V16.9H31.7Z" fill="#76628B"/>
	</g>
	<defs>
		<clipPath id="clip0_7_5715">
			<rect width="49" height="34" fill="white"/>
		</clipPath>
	</defs>
</svg>

<svg version="1.2" xmlns="http://www.w3.org/2000/svg" viewBox="0 0 49 34" width="49" height="34">
	<title>icons-ai</title>
	<style>
		.s0 { fill: #616e7d } 
		.s1 { fill: #aad4c8 } 
		.s2 { fill: #ffffff } 
		.s3 { fill: #82bfab } 
	</style>
	<g id="Bg">
	</g>
	<g id="Object">
		<g id="&lt;Group&gt;">
			<path id="&lt;Path&gt;" class="s0" d="m762.6 473.6l0.2-2.2h-5.8c-0.8 0-1.4-0.6-1.4-1.2v-6.9c0-0.7 0.6-1.3 1.4-1.3h14.5c0.8 0 1.4 0.6 1.4 1.3v6.9c0 0.6-0.6 1.2-1.4 1.2h-6.7z"/>
			<path id="&lt;Path&gt;" class="s1" d="m776.9 474.4h-2.7l0.1 1.3-1.3-1.3h-4.4c-0.5 0-0.9-0.4-0.9-0.8v-1.7h4.3c0.9 0 1.6-0.6 1.6-1.3v-2.5h3.3c0.5 0 0.9 0.4 0.9 0.8v4.7c0 0.4-0.4 0.8-0.9 0.8z"/>
			<path id="&lt;Path&gt;" class="s0" d="m757.4 477.9c1.9 0 3.4 1.5 3.4 3.4 0 1.9-1.5 3.4-3.4 3.4-1.9 0-3.4-1.5-3.4-3.4 0-1.9 1.5-3.4 3.4-3.4z"/>
			<path id="&lt;Compound Path&gt;" fill-rule="evenodd" class="s0" d="m777.8 485c1.8 0 3.2 1.5 3.2 3.2v1.6h-6.8c0-1.7-1-3.2-2.3-4.1 0.5-0.4 1.2-0.7 1.9-0.7zm-0.1 1.2c0.1-0.2-0.6-0.6-0.6-0.6l-1.2 3.7-1.3-3.7c0 0-0.6 0.4-0.6 0.6 0.1 0 1 0.9 1 0.9l-0.6 0.6 1.5 1.6 1.5-1.6-0.7-0.6c0 0 1-0.9 1-0.9z"/>
			<path id="&lt;Compound Path&gt;" fill-rule="evenodd" class="s0" d="m755.5 485h3.9c0.7 0 1.4 0.3 2 0.7-1.4 0.9-2.3 2.4-2.4 4.1h-6.8v-1.6c0-1.7 1.5-3.2 3.3-3.2zm0.1 0.4q-0.1 0-0.2 0l0.8 3.8h0.4l0.4-2.5-0.4-0.8h1.6l-0.4 0.8 0.4 2.5h0.5l0.7-3.8q-0.1 0-0.2 0z"/>
			<path id="&lt;Path&gt;" class="s2" d="m757.8 486.7l0.4-0.8h-1.6l0.4 0.8-0.4 2.5h-0.4l-0.8-3.8q0.1 0 0.2 0h3.6q0.1 0 0.2 0l-0.7 3.8h-0.5l-0.4-2.5z"/>
			<path id="&lt;Path&gt;" class="s0" d="m766.6 475.9c2.6 0 4.6 2.1 4.6 4.6 0 2.6-2 4.6-4.6 4.6-2.5 0-4.6-2-4.6-4.6 0-2.5 2.1-4.6 4.6-4.6z"/>
			<path id="&lt;Path&gt;" class="s0" d="m766.1 487.7l-0.5-0.9z"/>
			<path id="&lt;Compound Path&gt;" fill-rule="evenodd" class="s0" d="m769.3 485.6c2.4 0 4.3 1.9 4.3 4.3v2.1h-14v-2.1c0-2.4 2-4.3 4.3-4.3zm0.1 0.4q-0.2 0-0.3 0h-4.8q-0.2 0-0.3 0l1 5.3h3.4z"/>
			<path id="&lt;Path&gt;" class="s2" d="m767.1 487.7l0.6-0.9h-2.1l0.5 0.9-0.6 3.6h-0.6l-1-5.3q0.2 0 0.3 0h4.8q0.2 0 0.3 0l-1 5.3h-0.6l-0.5-3.6z"/>
			<path id="&lt;Path&gt;" class="s1" d="m766.1 487.7l-0.5-0.9h2.1l-0.6 0.9h0.1l0.5 3.6h-2.2z"/>
			<path id="&lt;Path&gt;" class="s2" d="m776.7 487.1l0.6 0.6-1.5 1.6 1.3-3.7c0 0 0.6 0.4 0.6 0.6-0.1 0-1 0.9-1 0.9z"/>
			<path id="&lt;Path&gt;" class="s2" d="m774.3 487.7l0.7-0.6c0 0-1-0.9-1-0.9-0.1-0.2 0.6-0.6 0.6-0.6l1.2 3.7z"/>
			<path id="&lt;Path&gt;" class="s0" d="m779.1 481.3v0.1 1.8c0 0.7 0.3 1.2 0.8 1.4v0.1h-4.1q-0.1 0-0.2 0c-1.9 0-3.5-1.6-3.4-3.6 0.1-1.7 1.5-3.1 3.2-3.2 2-0.2 3.7 1.4 3.7 3.4z"/>
			<path id="&lt;Compound Path&gt;" fill-rule="evenodd" class="s0" d="m748.8 484.4h3.1c0.5 0 1.1 0.2 1.5 0.5-1.1 0.7-1.8 1.8-1.8 3.2h-5.2v-1.2c0-1.4 1.1-2.5 2.4-2.5zm0.1 0.9c0.1 0 0.8 0.7 0.8 0.7l-0.5 0.5 1.1 1.2 1.2-1.2-0.5-0.5c0 0 0.7-0.7 0.8-0.7 0-0.1-0.5-0.5-0.5-0.5l-1 2.9-0.9-2.9c0 0-0.5 0.4-0.5 0.5z"/>
			<path id="&lt;Path&gt;" class="s2" d="m749.2 486.5l0.5-0.5c0 0-0.7-0.7-0.8-0.7 0-0.1 0.5-0.5 0.5-0.5l0.9 2.9z"/>
			<path id="&lt;Path&gt;" class="s2" d="m751 486l0.5 0.5-1.2 1.2 1-2.9c0 0 0.5 0.4 0.5 0.5-0.1 0-0.8 0.7-0.8 0.7z"/>
			<path id="&lt;Path&gt;" class="s0" d="m747.6 481.6c0-1.5 1.3-2.7 2.8-2.6 1.3 0 2.3 1.1 2.4 2.4 0.1 1.5-1.1 2.8-2.6 2.8h-0.1-3.1l-0.1-0.1c0.4-0.2 0.7-0.6 0.7-1.1z"/>
			<path id="&lt;Compound Path&gt;" fill-rule="evenodd" class="s0" d="m784.5 484.4c1.3 0 2.4 1.1 2.4 2.5v1.2h-5.2c0-1.4-0.7-2.5-1.7-3.2 0.4-0.3 0.9-0.5 1.5-0.5zm-0.1 0.3q0 0-0.1 0h-2.7q0 0-0.1 0l0.5 2.8h0.4l0.3-1.9-0.3-0.5h1.1l-0.3 0.5h0.1l0.2 1.9h0.4z"/>
			<path id="&lt;Path&gt;" class="s0" d="m783 478.9c1.4 0 2.6 1.2 2.6 2.6 0 1.5-1.2 2.6-2.6 2.6-1.5 0-2.6-1.1-2.6-2.6 0-1.4 1.1-2.6 2.6-2.6z"/>
			<path id="&lt;Path&gt;" class="s2" d="m783.3 485.6l0.2-0.5h-1.1l0.3 0.5-0.3 1.9h-0.4l-0.5-2.8q0.1 0 0.2 0h2.6q0.1 0 0.2 0l-0.6 2.8h-0.3l-0.3-1.9z"/>
		</g>
		<g id="&lt;Group&gt;">
			<path id="&lt;Path&gt;" class="s0" d="m222.9 471.8c2.6 0 4.7 2.1 4.7 4.7 0 2.6-2.1 4.7-4.7 4.7-2.6 0-4.8-2.1-4.8-4.7 0-2.6 2.2-4.7 4.8-4.7z"/>
			<path id="&lt;Path&gt;" class="s2" d="m223.4 483.9l0.5-1h-2.1l0.5 1-0.5 3.6h-0.7l-1-5.4q0.1 0 0.3 0h4.9q0.2 0 0.3 0l-1 5.4h-0.6l-0.6-3.6z"/>
			<path id="&lt;Path&gt;" class="s0" d="m197.5 471.8c2.6 0 4.7 2.1 4.7 4.7 0 2.6-2.1 4.7-4.7 4.7-2.6 0-4.7-2.1-4.7-4.7 0-2.6 2.1-4.7 4.7-4.7z"/>
			<path id="&lt;Compound Path&gt;" fill-rule="evenodd" class="s0" d="m200.4 488.2v-2.8c-0.4 0.8-0.7 1.8-0.7 2.8h-9.4v-2.1c0-2.5 2-4.5 4.4-4.5h5.5q0.7 0.1 1.3 0.3c1.1-1.6 2.9-2.6 4.9-2.6h7.5c2 0 3.8 1 4.9 2.6q0.6-0.2 1.3-0.3h5.5c2.4 0 4.4 2 4.4 4.5v2.1h-9.4c0-1-0.3-2-0.7-2.9v2.9zm19.7-6.1l1 5.4h0.6l0.6-3.6-0.5-1h2.1l-0.5 1 0.5 3.6h0.7l1-5.4q-0.1 0-0.3 0h-4.9q-0.2 0-0.3 0zm-13.7-2.2l1.4 7.3h4.7l1.4-7.3q-0.2 0-0.4 0h-6.7q-0.2 0-0.4 0zm-6.2 2.2q-0.1 0-0.3 0h-4.9q-0.2 0-0.3 0l1 5.4h0.6l0.6-3.6-0.5-1h2.1l-0.5 1 0.5 3.6h0.7z"/>
			<path id="&lt;Path&gt;" class="s2" d="m198 483.9l0.5-1h-2.1l0.5 1-0.5 3.6h-0.7l-1-5.4q0.1 0 0.3 0h4.9q0.2 0 0.3 0l-1 5.4h-0.6l-0.6-3.6z"/>
			<path id="&lt;Path&gt;" class="s0" d="m210.2 465.8c3.5 0 6.4 2.9 6.4 6.4 0 3.6-2.9 6.5-6.4 6.5-3.6 0-6.5-2.9-6.5-6.5 0-3.5 2.9-6.4 6.5-6.4z"/>
			<path id="&lt;Path&gt;" class="s2" d="m210.9 482.3l0.7-1.3h-2.9l0.7 1.3-0.7 4.9h-0.9l-1.4-7.3q0.2 0 0.4 0h6.7q0.2 0 0.4 0l-1.4 7.3h-0.8l-0.8-4.9z"/>
			<path id="&lt;Path&gt;" class="s1" d="m209.4 482.3l-0.7-1.3h2.9l-0.7 1.3 0.8 4.9h-3z"/>
		</g>
		<g id="&lt;Group&gt;">
			<path id="&lt;Path&gt;" class="s0" d="m23.8 617.1v-14.9q-0.6-0.3-0.8-0.8h-7.7l-0.2-0.5q-0.1-0.2-0.3-0.2-0.2 0-0.3 0.2l-0.2 0.5h-0.4c-0.5 0-0.9-0.4-0.9-0.9 0-0.5 0.4-0.8 0.9-0.8h9.1q0.2-0.6 0.8-0.9v-0.8c0-0.5 0.4-0.8 0.9-0.8 0.4 0 0.8 0.3 0.8 0.8v0.8q0.6 0.3 0.8 0.9h9.1c0.5 0 0.9 0.3 0.9 0.8 0 0.5-0.4 0.9-0.9 0.9h-0.4l-0.2-0.5q-0.1-0.2-0.3-0.2-0.2 0-0.3 0.2l-0.2 0.5h-7.7q-0.2 0.5-0.8 0.8v14.9z"/>
			<path id="&lt;Path&gt;" class="s3" d="m35 601.4l4.3 8.5q0.1 0 0.1 0.1h-0.7l-4.2-8.3-4.2 8.3h-0.7q0-0.1 0.1-0.1l4.3-8.5 0.2-0.5q0.1-0.2 0.3-0.2 0.2 0 0.3 0.2z"/>
			<path id="&lt;Path&gt;" class="s1" d="m38.7 610h0.7 0.3c0 2.9-2.3 5.2-5.2 5.2-2.9 0-5.2-2.3-5.2-5.2h0.3 0.7z"/>
			<path id="&lt;Path&gt;" class="s3" d="m15.3 601.4l4.3 8.5q0.1 0 0.1 0.1h-0.7l-4.2-8.3-4.2 8.3h-0.6q-0.1-0.1 0-0.1l4.3-8.5 0.2-0.5q0.1-0.2 0.3-0.2 0.2 0 0.3 0.2z"/>
			<path id="&lt;Path&gt;" class="s1" d="m19 610h0.7 0.3c0 2.9-2.3 5.2-5.2 5.2-2.9 0-5.2-2.3-5.2-5.2h0.4 0.6z"/>
			<path id="&lt;Path&gt;" class="s0" d="m29.9 617.1v1.2h2.8v1.2h-16.1v-1.2h2.7v-1.2h4.5 1.7z"/>
		</g>
		<g id="&lt;Group&gt;">
			<path id="&lt;Path&gt;" class="s1" d="m-105.6 613.6h0.2c1.5 0.8 3.1 1.4 4.9 1.5l-2.3 2.5-3-4z"/>
			<path id="&lt;Path&gt;" class="s1" d="m-93.3 613.6h0.8 0.2l-2.9 4-2.4-2.5c1.5-0.3 3-0.8 4.3-1.5z"/>
			<path id="&lt;Compound Path&gt;" fill-rule="evenodd" class="s0" d="m-93.3 613.6h0.7q0.1 0 0.1 0h-0.8c-1.3 0.7-2.8 1.2-4.3 1.5l2.4 2.5 2.9-4c5.7 0.2 10.2 4.7 10.2 10.2v5h-33.8v-5c0-5.5 4.5-10 10.1-10.2l3 4 2.3-2.5c-1.8-0.1-3.4-0.7-4.9-1.5h-0.2q0.1 0 0.2 0-1.8-1-3.1-2.6c-0.7 2.4-2.8 4.3-5.4 4.4-2.1 0.1-4-0.9-5.2-2.5 2.4-0.3 4.3-2 4.9-4.1q0.1-0.3 0.2-0.5c0.3-0.8 1-1.5 1.8-1.8-1-0.4-1.7-1.4-1.7-2.6v-0.9c0-1.3 1-2.4 2.3-2.7q-0.1-0.6-0.1-1.2v-0.2q0-0.4 0-0.9c0.2-1.9 0.9-3.7 1.9-5.2q0.8-1.2 1.9-2.1c1.5-1.3 3.2-2.2 5.2-2.5l0.2 0.1-0.1-0.2h0.2q0.6 0 1.4-0.1h0.1q0.4-0.1 0.9-0.1v0.1h0.1v-0.1c2.3-0.1 5.3 0.2 8.2 2.2 2.8 2 4.6 5.3 4.6 9q0 0.1 0 0.2 0 0.5 0 1c1.3 0.2 2.4 1.3 2.4 2.7v0.9c0 1.1-0.7 2-1.6 2.5 1.1 0.2 1.9 0.9 2.3 1.9q0.1 0.2 0.1 0.5c0.7 2.1 2.6 3.8 4.9 4.1-1.1 1.6-3 2.6-5.1 2.5-2.9-0.2-5.1-2.3-5.6-5-0.9 1.3-2.2 2.4-3.6 3.2zm5.9-9.9q0 0.7-0.1 1.4c0.6-0.1 1-0.6 1-1.2v-0.9c0-0.5-0.4-1-1-1.1q0 0.3 0 0.7 0.1 0.5 0.1 1.1zm-23.9 0q0-0.6 0.1-1.3 0-0.2-0.1-0.5c-0.5 0.2-0.9 0.6-0.9 1.1v0.9c0 0.6 0.4 1.1 1 1.2q-0.1-0.7-0.1-1.4zm21.8 2.8q0.2-0.8 0.3-1.7 0.1-0.5 0.1-1.1 0-0.7-0.1-1.4-0.1-0.4-0.2-0.7c-1.4-1-3.2-2.6-3.9-3.8 0 0-11.3 2.7-15.4 3q-0.2 0-0.4 0-0.2 0.7-0.3 1.5-0.1 0.7-0.1 1.4 0 0.6 0 1.1 0.1 0.9 0.4 1.7c1.2 4.1 5.1 7 9.8 7 4.6 0 8.5-2.9 9.8-7z"/>
		</g>
		<g id="&lt;Group&gt;">
			<path id="&lt;Compound Path&gt;" fill-rule="evenodd" class="s0" d="m41 3.4c0.5 0 0.9 0.5 0.9 1v20.1c0 0.5-0.4 0.9-0.9 0.9h-32.7c-0.5 0-0.9-0.4-0.9-0.9v-20.1c0-0.5 0.4-1 0.9-1zm-1.3 2.1h-30v17.8h30z"/>
			<path id="&lt;Path&gt;" class="s0" d="m42.2 26.1l3.4 3.2c0.7 0.7 0.3 2-0.6 2h-40.7c-0.9 0-1.3-1.3-0.6-2l3.4-3.2q0.3-0.2 0.6-0.2h33.9q0.3 0 0.6 0.2z"/>
			<path id="&lt;Compound Path&gt;" fill-rule="evenodd" class="s2" d="m9.6 23.3v-17.8h30.1v17.8zm14.7-7.2h-6.5v0.8h6.5zm7.4 4.6h-7v0.7h7zm6.4-1.1h-13.4v0.6h13.4zm0-1h-13.4v0.6h13.4zm0-1.1h-13.4v0.6h13.4zm-6.9-0.6v-0.9h-6.5v0.9zm6.9-0.9h-6.5v0.9h6.5zm-27.2-0.8h27.2v-8.3h-27.2zm0 1.5h6.5v-0.8h-6.5zm0 4.9h13.4v-4.1h-13.4z"/>
			<path id="&lt;Path&gt;" class="s1" d="m10.9 15.4v-8.4h27.3v8.4z"/>
			<path id="&lt;Path&gt;" class="s3" d="m10.9 16.9v-0.8h6.5v0.8z"/>
			<path id="&lt;Path&gt;" class="s3" d="m10.9 21.7v-4.1h13.4v4.1z"/>
			<path id="&lt;Path&gt;" class="s3" d="m17.8 16.9v-0.8h6.5v0.8z"/>
			<path id="&lt;Path&gt;" class="s3" d="m24.7 16.9v-0.8h6.5v0.8z"/>
			<path id="&lt;Path&gt;" class="s1" d="m24.7 18.2v-0.6h13.5v0.6z"/>
			<path id="&lt;Path&gt;" class="s1" d="m24.7 19.2v-0.6h13.5v0.6z"/>
			<path id="&lt;Path&gt;" class="s1" d="m24.7 20.3v-0.6h13.5v0.6z"/>
			<path id="&lt;Path&gt;" class="s1" d="m24.7 21.4v-0.7h7v0.7z"/>
			<path id="&lt;Path&gt;" class="s3" d="m31.7 16.9v-0.8h6.5v0.8z"/>
		</g>
	</g>
</svg>
